icons/codecov.svg

<?xml version="1.0" encoding="UTF-8" standalone="no"?>
<svg width="256px" height="281px" viewBox="0 0 256 281" version="1.1" xmlns="http://www.w3.org/2000/svg" xmlns:xlink="http://www.w3.org/1999/xlink" preserveAspectRatio="xMidYMid">
    <g>
        <path d="M218.551006,37.4189601 C194.415777,13.2894436 162.329733,0 128.097097,0 C57.5366498,0.0471307512 0.0914050933,57.5266524 0.0399897283,128.121377 L0,149.812948 L16.8585269,138.323042 C28.3270097,130.509335 41.6093123,126.378967 55.2758019,126.378967 C59.3547542,126.378967 63.4736963,126.751728 67.5155152,127.488682 C80.2579565,129.809514 91.6807368,135.578033 100.92979,144.247235 C103.049245,139.577006 105.544319,135.038171 108.489276,130.710712 C109.697538,128.935453 110.974352,127.227321 112.295442,125.560606 C100.642721,115.720276 86.6463156,109.097692 71.3688112,106.315549 C66.0430363,105.347226 60.6201435,104.857352 55.2486661,104.857352 C44.1229524,104.857352 33.2843078,106.898257 22.9583887,110.927222 C31.3190983,59.7046644 75.8090992,21.55732 128.18993,21.5187584 C156.581209,21.5187584 183.267212,32.5716337 203.337771,52.6364799 C219.349373,68.6466532 229.592456,88.6686533 233.125834,110.752981 C222.797058,106.718303 211.91414,104.653119 200.722728,104.608845 L199.15456,104.601704 C198.007711,104.624555 196.869432,104.648834 195.754005,104.713104 C193.798793,104.813078 191.856434,104.990175 189.932643,105.212975 C189.358505,105.275816 188.794364,105.365793 188.225938,105.444344 C186.847721,105.630011 185.475216,105.838529 184.116994,106.082752 C183.514291,106.192724 182.914445,106.314121 182.317456,106.43409 C180.933526,106.715446 179.561021,107.028223 178.202799,107.370992 C177.711496,107.496674 177.220194,107.613787 176.733176,107.745182 C175.017902,108.209348 173.318339,108.722074 171.643055,109.283358 C171.543081,109.317635 171.438822,109.346199 171.338847,109.379048 C167.53411,110.677286 163.846486,112.235457 160.281687,114.027854 C160.18457,114.077841 160.08888,114.129256 159.988906,114.179244 C158.320763,115.024741 156.686897,115.928794 155.07731,116.879978 C154.945915,116.95853 154.811664,117.038509 154.678841,117.118489 C146.259575,122.165764 138.725796,128.638387 132.377426,136.370686 C132.114637,136.689176 131.853275,137.006237 131.593342,137.329012 C130.216553,139.054283 128.875469,140.818115 127.61722,142.664784 C126.547495,144.235809 125.554893,145.839683 124.592283,147.460695 C124.373768,147.8306 124.158109,148.20479 123.945306,148.577551 C123.068389,150.104302 122.230033,151.651047 121.448805,153.216359 C121.404531,153.306336 121.360256,153.3906 121.315982,153.480577 C119.502162,157.143922 117.962557,160.910097 116.678602,164.753396 C116.678602,164.756252 116.677173,164.757681 116.677173,164.761965 L116.677173,164.76625 C113.532267,174.1924 112.006944,184.077004 112.168331,194.078721 C112.172616,194.475762 112.172616,194.872802 112.186898,195.271272 C112.208321,196.048215 112.246883,196.828015 112.291157,197.609242 C112.325434,198.230511 112.365424,198.847496 112.411126,199.46448 C112.459685,200.122882 112.512529,200.782713 112.579654,201.442544 C112.658206,202.246623 112.753895,203.049274 112.855298,203.853353 C112.918139,204.36465 112.973839,204.878804 113.049534,205.387245 C113.240913,206.725472 113.455144,208.060844 113.707936,209.396215 C118.046822,232.334609 130.969217,252.333757 150.097161,265.713178 L152.543675,267.277062 L152.56367,267.228503 C163.430879,274.293831 175.89482,278.928355 188.795792,280.679334 L190.542486,280.914987 L203.516297,260.093193 L198.85178,259.966083 C162.953858,258.980622 133.751359,228.962618 133.751359,193.048985 C133.751359,157.700922 161.375692,128.347033 196.628066,126.220436 L198.858921,126.134744 C213.149536,125.773408 227.230205,129.993753 239.18285,138.131663 L255.964253,149.553015 L255.999959,127.972843 C256.027094,93.7544898 242.727653,61.594179 218.551006,37.4189601" fill="#E0225C"></path>
    </g>
</svg>

<svg xmlns="http://www.w3.org/2000/svg" viewBox="0 0 256 280.915">
  <path fill="#e0225c" d="M218.551 37.419C194.416 13.289 162.33 0 128.097 0 57.537.047.091 57.527.04 128.121L0 149.813l16.859-11.49c11.468-7.814 24.75-11.944 38.417-11.944 4.079 0 8.198.373 12.24 1.11 12.742 2.32 24.165 8.089 33.414 16.758 2.12-4.67 4.614-9.209 7.56-13.536a88.078 88.078 0 0 1 3.805-5.15c-11.652-9.84-25.649-16.463-40.926-19.245a90.35 90.35 0 0 0-16.12-1.459 88.377 88.377 0 0 0-32.29 6.07c8.36-51.222 52.85-89.37 105.23-89.408 28.392 0 55.078 11.053 75.149 31.117 16.011 16.01 26.254 36.033 29.788 58.117-10.329-4.035-21.212-6.1-32.403-6.144l-1.568-.007a90.998 90.998 0 0 0-3.401.111c-1.955.1-3.898.277-5.821.5-.575.063-1.139.153-1.707.231-1.378.186-2.75.395-4.109.639-.603.11-1.203.231-1.8.351a90.52 90.52 0 0 0-4.114.937c-.492.126-.983.243-1.47.374a90.181 90.181 0 0 0-5.09 1.539c-.1.034-.204.062-.304.095a87.533 87.533 0 0 0-11.057 4.649c-.097.05-.193.101-.293.151a86.696 86.696 0 0 0-4.912 2.701l-.398.239a86.09 86.09 0 0 0-22.302 19.252c-.262.318-.524.635-.784.958-1.376 1.725-2.718 3.49-3.976 5.336a91.412 91.412 0 0 0-3.672 5.913 90.235 90.235 0 0 0-2.496 4.639c-.044.09-.089.174-.133.264a88.786 88.786 0 0 0-4.637 11.273l-.001.009v.004a88.007 88.007 0 0 0-4.51 29.312c.005.397.005.794.02 1.193.02.777.06 1.556.104 2.338a99.123 99.123 0 0 0 .288 3.833c.079.804.174 1.607.276 2.41.063.512.118 1.026.194 1.535.191 1.338.406 2.673.658 4.009 4.34 22.938 17.262 42.937 36.39 56.316l2.446 1.564.02-.048a88.572 88.572 0 0 0 36.232 13.45l1.747.236 12.974-20.822-4.665-.127c-35.898-.985-65.1-31.003-65.1-66.917 0-35.348 27.624-64.702 62.877-66.828l2.23-.086c14.291-.361 28.372 3.859 40.324 11.997l16.782 11.421.035-21.58c.028-34.218-13.272-66.379-37.449-90.554"/>
</svg>
